icons/Volume-Minus.svg

<svg width="24" height="24" viewBox="0 0 24 24" fill="none" xmlns="http://www.w3.org/2000/svg">
<g id="Volume-Minus">
<path id="Vector" d="M2.66 16.2V7.19998C2.66 6.80215 2.81804 6.42062 3.09934 6.13932C3.38065 5.85801 3.76218 5.69998 4.16 5.69998H6.06C6.45105 5.69988 6.83348 5.58515 7.16 5.36998L10.33 3.25998C10.5553 3.1103 10.8169 3.02433 11.0871 3.01118C11.3572 2.99802 11.626 3.05816 11.8647 3.18524C12.1035 3.31232 12.3035 3.5016 12.4435 3.73305C12.5835 3.9645 12.6583 4.22949 12.66 4.49998V18.9C12.6601 19.1713 12.5866 19.4376 12.4473 19.6705C12.3081 19.9033 12.1082 20.0941 11.8691 20.2223C11.63 20.3506 11.3606 20.4116 11.0896 20.3989C10.8185 20.3861 10.556 20.3001 10.33 20.15L7.16 18C6.83459 17.7813 6.45207 17.663 6.06 17.66H4.16C3.76901 17.6601 3.39342 17.5076 3.11324 17.2349C2.83306 16.9622 2.67043 16.5908 2.66 16.2Z" stroke="#00153F" stroke-width="1.5" stroke-linecap="round" stroke-linejoin="round"/>
<path id="Vector_2" d="M21.34 12.2H15.68" stroke="#00153F" stroke-width="1.5" stroke-linecap="round" stroke-linejoin="round"/>
</g>
</svg>

<svg xmlns="http://www.w3.org/2000/svg" fill="none" viewBox="0 0 24 24"><path stroke="currentColor" stroke-linecap="round" stroke-linejoin="round" stroke-width="1.5" d="M2.66 16.2v-9a1.5 1.5 0 0 1 1.5-1.5h1.9a2 2 0 0 0 1.1-.33l3.17-2.11a1.5 1.5 0 0 1 2.33 1.24v14.4a1.5 1.5 0 0 1-2.33 1.25L7.16 18a2 2 0 0 0-1.1-.34h-1.9a1.5 1.5 0 0 1-1.5-1.46Zm18.68-4h-5.66"/></svg>
